assets/fc/fc-invite.svg

<svg xmlns="http://www.w3.org/2000/svg" width="100%" height="100%" viewBox="0 0 48 48"><path fill="#78909C" d="M40 41H8c-2.2 0-4-1.8-4-4V16.1c0-1.3.6-2.5 1.7-3.3L24 0l18.3 12.8c1.1.7 1.7 2 1.7 3.3V37c0 2.2-1.8 4-4 4z"/><path fill="#fff" d="M12 11h24v22H12z"/><path fill="#CFD8DC" d="M40 41H8c-2.2 0-4-1.8-4-4V17l20 13 20-13v20c0 2.2-1.8 4-4 4z"/><g fill="#4CAF50"><path d="M22 14h4v12h-4z"/><path d="M18 18h12v4H18z"/></g></svg>

<svg xmlns="http://www.w3.org/2000/svg" width="100%" height="100%" viewBox="0 0 48 48"><path fill="#78909C" d="M40,41H8c-2.2,0-4-1.8-4-4l0-20.9c0-1.3,0.6-2.5,1.7-3.3L24,0l18.3,12.8c1.1,0.7,1.7,2,1.7,3.3V37 C44,39.2,42.2,41,40,41z"/><path fill="#fff" d="M12 11H36V33H12z"/><path fill="#CFD8DC" d="M40,41H8c-2.2,0-4-1.8-4-4l0-20l20,13l20-13v20C44,39.2,42.2,41,40,41z"/><g fill="#4CAF50"><path d="M22 14H26V26H22z"/><path d="M18 18H30V22H18z"/></g></svg>
